X: 760
T: Old Towser
B: jims roots
M:2/4
L:1/16
Q: 1/4=100
K:A
V:1 
"A"EGAc BAFE | AEAc "D"f2e2 | "A"agae "D"fecB | "A"AcBA "D"F2E2 |
"A"EGAc BAFE | AEAc "D"f2e2 | "A"agae "D"fecA | "E"B2A2 "A"A2 z2 :|
|: "A"eaga "D"fece | "A"agae "D"f2e2 | "A"eaga "D"fecB | "A"AcBA "D"F2E2 |
"A"EGAc BAFE | AEAc "D"f2e2 | "A"agae "D"fecA | "E"B2A2 "A"A2z2 :|
% abcbook-tune_id 6298c279cc7b19912fffda4b


% abcbook-boost 0
% abcbook-tablature 
% abcbook-transpose 
% abcbook-lastupdated 1654178426137
% abcbook-soundfonts 
% abcbook-repeats 1


